src/img/gear.svg

<svg width="100" height="100" viewBox="0 0 100 100" fill="none" xmlns="http://www.w3.org/2000/svg">
<path fill-rule="evenodd" clip-rule="evenodd" d="M61.0494 70.4213C60.7799 71.4272 60.6644 72.4717 60.6644 73.5162C60.6644 76.6111 61.7808 79.5125 63.6673 81.7563C65.5153 84 68.1333 85.5862 71.1747 86.1277H71.2132C71.5982 86.2051 71.9062 86.4372 72.1372 86.708C72.3297 87.0175 72.4452 87.4044 72.3682 87.7912C72.2912 88.1781 72.0602 88.5263 71.7907 88.7197C71.4827 88.9518 71.0977 89.0292 70.7512 88.9905H70.7127C67.5558 88.4102 64.7453 86.9401 62.5893 84.8511C60.4334 82.8008 58.9319 80.1315 58.2004 77.1913C57.7769 77.3461 57.3534 77.4621 56.9299 77.5782C56.4679 77.7329 56.0059 77.849 55.5439 77.965V83.3424C55.5439 84.3482 55.1204 85.238 54.4659 85.8956C53.8115 86.5533 52.926 86.9401 51.925 86.9401H45.6111C44.6486 86.9401 43.7246 86.5533 43.0701 85.8956C42.4541 85.238 42.0306 84.3482 42.0306 83.3424V77.965C40.4521 77.5782 38.9121 77.0753 37.4492 76.4563C35.9477 75.8373 34.5232 75.1023 33.1757 74.2512L29.3643 78.0811C28.6713 78.7775 27.7473 79.1256 26.8233 79.1256C25.8993 79.1256 24.9753 78.7775 24.2823 78.0811L19.8164 73.5936C19.1234 72.8585 18.7769 71.9688 18.7769 71.0403C18.7769 70.1118 19.1234 69.1834 19.8164 68.487L23.6278 64.6572C22.7808 63.3032 22.0109 61.8331 21.3949 60.363C20.8174 58.893 20.3169 57.3455 19.9319 55.7594H14.5805C13.5795 55.7594 12.694 55.3339 12.0395 54.6762C11.385 54.0573 11 53.1288 11 52.1617V45.7785C11 44.8114 11.385 43.8829 12.0395 43.2639C12.694 42.6063 13.5795 42.1807 14.5805 42.1807H19.9319C20.3169 40.5946 20.8174 39.0472 21.3949 37.5771C22.0109 36.1071 22.7808 34.637 23.6278 33.283L19.8164 29.4531C19.1234 28.7568 18.7769 27.8283 18.7769 26.8998C18.7769 25.9714 19.1234 25.0816 19.8164 24.3466L24.2823 19.859C24.9753 19.1627 25.8993 18.8145 26.8233 18.8145C27.7473 18.8145 28.6713 19.1627 29.3643 19.859L33.1757 23.6889C34.5232 22.8378 35.9477 22.1028 37.4492 21.4838C38.9121 20.8649 40.4521 20.362 42.0306 19.9751V14.5978C42.0306 13.5919 42.4541 12.7022 43.0701 12.0445C43.7246 11.3869 44.6486 11 45.6111 11H51.925C52.926 11 53.85 11.3869 54.4659 12.0445C55.1204 12.7022 55.5439 13.5919 55.5439 14.5978V19.9751C57.1224 20.362 58.6239 20.8649 60.1254 21.4838C61.5884 22.1028 63.0513 22.8378 64.3988 23.6889L68.2103 19.859C68.9033 19.1627 69.8272 18.8145 70.7512 18.8145C71.6752 18.8145 72.5607 19.1627 73.2922 19.859L77.7581 24.3466C78.4511 25.0816 78.7976 25.9714 78.7976 26.8998C78.7976 27.8283 78.4511 28.7568 77.7581 29.4531L73.9467 33.283C74.7937 34.637 75.5252 36.1071 76.1412 37.5771C76.7572 39.0859 77.2577 40.5946 77.6426 42.1807H82.9941C83.9951 42.1807 84.8806 42.6063 85.535 43.2639C86.1895 43.8829 86.5745 44.8114 86.5745 45.7785V46.2814C86.5745 46.6683 86.4205 47.0164 86.151 47.2872C85.8815 47.558 85.535 47.7128 85.1501 47.7128C84.7266 47.7128 84.3801 47.558 84.1106 47.2872C83.8796 47.0164 83.6871 46.6683 83.6871 46.2814V45.7785C83.6871 45.5851 83.6101 45.4303 83.4946 45.2756C83.3791 45.1595 83.1866 45.0822 82.9941 45.0822H76.8342C76.3722 45.0822 75.9487 44.9274 75.6407 44.6566C75.2942 44.3858 75.0632 43.999 74.9862 43.5734C74.6397 41.8712 74.1392 40.2464 73.4847 38.699C72.8687 37.1129 72.0602 35.6041 71.0977 34.1728C70.8667 33.7859 70.7512 33.3604 70.7897 32.9348C70.8667 32.5093 71.0207 32.1224 71.3287 31.8129L75.7177 27.4028C75.8332 27.2867 75.9102 27.0933 75.9102 26.8998C75.9102 26.7451 75.8332 26.5517 75.7177 26.3969L71.2517 21.9094C71.0977 21.7933 70.9052 21.716 70.7512 21.716C70.5587 21.716 70.3662 21.7933 70.2507 21.9094L65.8618 26.3196C65.5538 26.629 65.1688 26.7838 64.7453 26.8612C64.3218 26.8998 63.8983 26.7838 63.5133 26.5517C62.0888 25.5845 60.5874 24.7721 59.0089 24.1532C57.4689 23.4955 55.8134 22.9926 54.1579 22.6444C53.7345 22.567 53.3495 22.3349 53.08 21.9868C52.8105 21.6773 52.6565 21.2517 52.6565 20.7875V14.5978C52.6565 14.4043 52.5795 14.2109 52.464 14.0949C52.31 13.9788 52.156 13.9014 51.925 13.9014H45.6111C45.4186 13.9014 45.2646 13.9788 45.1106 14.0949C44.9951 14.2109 44.9181 14.4043 44.9181 14.5978V20.7875C44.9181 21.2517 44.7641 21.6773 44.4946 21.9868C44.2251 22.3349 43.8401 22.567 43.4166 22.6444C41.7226 22.9926 40.1056 23.4955 38.5656 24.1532C36.9872 24.7721 35.4857 25.5845 34.0612 26.5517C33.6762 26.7838 33.2527 26.8998 32.8292 26.8612C32.4057 26.7838 32.0207 26.629 31.7127 26.3196L27.3238 21.9094C27.2083 21.7933 27.0158 21.716 26.8233 21.716C26.6308 21.716 26.4768 21.7933 26.3228 21.9094L21.8569 26.3969C21.7029 26.5517 21.6644 26.7451 21.6644 26.8998C21.6644 27.0933 21.7029 27.2867 21.8569 27.4028L26.2073 31.8129C26.5538 32.1224 26.7078 32.5093 26.7463 32.9348C26.7848 33.3604 26.7078 33.7859 26.4768 34.1728C25.5143 35.6041 24.7058 37.1129 24.0898 38.699C23.4353 40.2464 22.9348 41.8712 22.5884 43.5734C22.5114 43.999 22.2419 44.3858 21.9339 44.6566C21.6259 44.9274 21.2024 45.0822 20.7404 45.0822H14.5805C14.388 45.0822 14.1955 45.1595 14.08 45.2756C13.9645 45.4303 13.849 45.5851 13.849 45.7785V52.1617C13.849 52.3551 13.9645 52.5098 14.08 52.6646C14.1955 52.7806 14.388 52.858 14.5805 52.858H20.7404C21.2024 52.858 21.6259 53.0127 21.9339 53.2835C22.2419 53.5543 22.5114 53.9412 22.5884 54.3667C22.9348 56.0689 23.4353 57.6937 24.0898 59.2411C24.7058 60.8273 25.5143 62.336 26.4768 63.7674C26.7078 64.1542 26.7848 64.5798 26.7463 65.0053C26.7078 65.4309 26.5538 65.8177 26.2073 66.1272L21.8569 70.5374C21.7029 70.6534 21.6644 70.8469 21.6644 71.0403C21.6644 71.195 21.7029 71.3885 21.8569 71.5432L26.3228 76.0308C26.4768 76.1468 26.6308 76.2242 26.8233 76.2242C27.0158 76.2242 27.2083 76.1468 27.3238 76.0308L31.7127 71.6206C32.0207 71.3111 32.4057 71.1564 32.8292 71.1177C33.2527 71.0403 33.6762 71.1564 34.0612 71.3885C35.4857 72.3556 36.9872 73.168 38.5656 73.787C40.1056 74.4446 41.7226 74.9476 43.4166 75.2957C43.8401 75.3731 44.2251 75.6052 44.4946 75.9534C44.7641 76.2629 44.9181 76.6884 44.9181 77.1526V83.3424C44.9181 83.5358 44.9951 83.7292 45.1106 83.8453C45.2646 83.9613 45.4186 84.0387 45.6111 84.0387H51.925C52.156 84.0387 52.31 83.9613 52.464 83.8453C52.5795 83.7292 52.6565 83.5358 52.6565 83.3424V77.1526C52.6565 76.6884 52.8105 76.2629 53.08 75.9534C53.3495 75.6052 53.7345 75.3731 54.1579 75.2957C54.8124 75.1797 55.4669 74.9862 56.1214 74.8315C56.6604 74.6381 57.2379 74.4833 57.8154 74.2512L57.7769 73.5162C57.7769 72.7812 57.8539 72.0461 57.9309 71.3498C58.0464 70.6921 58.1619 70.0732 58.3159 69.4542C55.4669 70.7695 52.31 71.5045 48.999 71.5045C36.6022 71.5045 26.5538 61.4075 26.5538 48.9894C26.5538 36.5326 36.6022 26.4356 48.999 26.4356C61.3574 26.4356 71.4057 36.5326 71.4057 48.9894C71.4057 52.3164 70.6742 55.5273 69.3653 58.3901C69.9427 58.1966 70.5972 58.0806 71.2132 58.0032C71.9447 57.8871 72.6762 57.8485 73.4077 57.8485C73.6387 57.8485 73.8697 57.8485 74.0237 57.8485C74.2162 57.3069 74.3702 56.7653 74.5242 56.2237C74.7167 55.6047 74.8707 54.9857 74.9862 54.3667C75.0632 53.9412 75.2942 53.5543 75.6407 53.2835C75.9487 53.0127 76.3722 52.858 76.8342 52.858H82.9941C83.1866 52.858 83.3791 52.7806 83.4946 52.6646C83.6101 52.5098 83.6871 52.3551 83.6871 52.1617V51.5814C83.6871 51.1945 83.8796 50.8463 84.1106 50.5755C84.3801 50.3047 84.7266 50.15 85.1501 50.15C85.535 50.15 85.8815 50.3047 86.151 50.5755C86.4205 50.8463 86.5745 51.1945 86.5745 51.5814V52.1617C86.5745 53.1288 86.1895 54.0573 85.535 54.6762C84.8806 55.3339 83.9951 55.7594 82.9941 55.7594H77.6426C77.5272 56.185 77.4117 56.6105 77.2962 57.0361C77.1807 57.4616 77.0652 57.8485 76.9497 58.2353C80.3761 59.0477 83.3791 60.982 85.535 63.6513C87.691 66.3593 89 69.8024 89 73.5162C89 77.23 87.691 80.7117 85.4966 83.4584C83.2636 86.1664 80.1451 88.1394 76.5262 88.9131C76.1412 88.9905 75.7562 88.8744 75.4482 88.681C75.1402 88.4876 74.9092 88.1781 74.8322 87.7525C74.7552 87.3657 74.8322 86.9788 75.0247 86.6693C75.2557 86.3599 75.5637 86.1277 75.9487 86.0504C78.9131 85.4701 81.4541 83.8453 83.2636 81.6015C85.0731 79.3964 86.151 76.5724 86.151 73.5162C86.151 69.9958 84.6881 66.7849 82.4166 64.4637C80.1066 62.1813 76.9112 60.7112 73.4077 60.7112C72.3297 60.7112 71.2902 60.8659 70.3277 61.0981C69.3268 61.3689 68.3643 61.717 67.4403 62.2199C67.2478 62.336 67.0553 62.4134 66.8628 62.5294C65.5923 64.1929 64.1293 65.7017 62.4738 66.9396C62.3583 67.133 62.2428 67.3265 62.1658 67.5199C61.6654 68.4484 61.2804 69.4155 61.0494 70.4213ZM61.2419 63.9995C62.0118 63.1484 62.7818 62.3747 63.5903 61.717L63.6288 61.6783C66.5548 58.274 68.3258 53.8251 68.3258 48.9894C68.3258 38.2348 59.6634 29.5305 48.999 29.5305C38.2962 29.5305 29.6338 38.2348 29.6338 48.9894C29.6338 59.7054 38.2962 68.4097 48.999 68.4097C53.6575 68.4097 57.9309 66.7462 61.2419 63.9995ZM71.8677 77.6556C72.0217 77.7716 72.1757 77.8877 72.3682 77.965C72.5607 78.0424 72.7532 78.0811 72.9842 78.0811C73.1767 78.0811 73.3692 78.0424 73.5617 77.965C73.7542 77.8877 73.9082 77.7716 74.0622 77.6556L79.9141 71.9301C80.1836 71.6593 80.3376 71.2724 80.3376 70.9242C80.3376 70.5374 80.1836 70.1505 79.8756 69.8797C79.6061 69.6089 79.2211 69.4542 78.7976 69.4542C78.4126 69.4542 78.0276 69.5702 77.7197 69.841L72.9842 74.4833L70.0197 71.5432C69.8657 71.3885 69.7118 71.2724 69.5193 71.195C69.3268 71.1177 69.1343 71.079 68.9033 71.079C68.7108 71.0403 68.4798 71.079 68.2873 71.1564C68.0948 71.2337 67.9408 71.3498 67.7868 71.5045C67.6328 71.6593 67.5173 71.814 67.4403 72.0074C67.3633 72.1622 67.3248 72.3943 67.3248 72.5877C67.3248 72.7812 67.3633 72.9746 67.4403 73.168C67.5558 73.3228 67.6713 73.5162 67.8253 73.6322L71.8677 77.6556Z" fill="#616F8A"/>
</svg>

<svg width="100" height="100" fill="none" xmlns="http://www.w3.org/2000/svg"><path fill-rule="evenodd" clip-rule="evenodd" d="M61.05 70.421a11.962 11.962 0 0 0-.386 3.095c0 3.095 1.117 5.996 3.003 8.24a12.53 12.53 0 0 0 7.508 4.372h.038c.385.077.693.31.924.58.193.31.308.696.231 1.083a1.547 1.547 0 0 1-.577.929c-.308.232-.693.31-1.04.27h-.038c-3.157-.58-5.968-2.05-8.124-4.139-2.156-2.05-3.657-4.72-4.389-7.66-.423.155-.847.271-1.27.387-.462.155-.924.271-1.386.387v5.377c0 1.006-.424 1.896-1.078 2.554a3.537 3.537 0 0 1-2.541 1.044h-6.314a3.604 3.604 0 0 1-2.54-1.044c-.617-.658-1.04-1.548-1.04-2.554v-5.377a30.257 30.257 0 0 1-4.582-1.509 27.892 27.892 0 0 1-4.273-2.205l-3.812 3.83a3.574 3.574 0 0 1-2.54 1.045 3.574 3.574 0 0 1-2.542-1.045l-4.466-4.487c-.693-.735-1.04-1.625-1.04-2.554a3.61 3.61 0 0 1 1.04-2.553l3.812-3.83a30.255 30.255 0 0 1-2.233-4.294 35.615 35.615 0 0 1-1.463-4.604H14.58c-1.002 0-1.887-.425-2.541-1.083-.655-.619-1.04-1.547-1.04-2.514v-6.383c0-.968.385-1.896 1.04-2.515.654-.658 1.54-1.083 2.54-1.083h5.352a35.62 35.62 0 0 1 1.463-4.604 30.26 30.26 0 0 1 2.233-4.294l-3.812-3.83a3.61 3.61 0 0 1-1.04-2.553c0-.929.347-1.818 1.04-2.553l4.466-4.488a3.574 3.574 0 0 1 2.541-1.045c.924 0 1.848.349 2.541 1.045l3.812 3.83a27.892 27.892 0 0 1 4.273-2.205 30.28 30.28 0 0 1 4.582-1.509v-5.377c0-1.006.423-1.896 1.04-2.554A3.604 3.604 0 0 1 45.61 11h6.314c1.001 0 1.925.387 2.54 1.044.655.658 1.079 1.548 1.079 2.554v5.377c1.578.387 3.08.89 4.581 1.509 1.463.619 2.926 1.354 4.274 2.205l3.811-3.83a3.574 3.574 0 0 1 2.541-1.045c.924 0 1.81.349 2.541 1.045l4.466 4.488c.693.735 1.04 1.624 1.04 2.553a3.61 3.61 0 0 1-1.04 2.553l-3.811 3.83c.847 1.354 1.578 2.824 2.194 4.294a32.12 32.12 0 0 1 1.502 4.604h5.351c1.001 0 1.887.425 2.541 1.083.654.619 1.04 1.547 1.04 2.514v.503c0 .387-.154.735-.424 1.006s-.616.426-1 .426c-.424 0-.77-.155-1.04-.426-.231-.27-.424-.619-.424-1.006v-.502c0-.194-.077-.349-.192-.503a.73.73 0 0 0-.5-.194h-6.16a1.8 1.8 0 0 1-1.194-.425 1.777 1.777 0 0 1-.655-1.084 25.572 25.572 0 0 0-1.501-4.874 23.118 23.118 0 0 0-2.387-4.526c-.231-.387-.347-.813-.308-1.238.077-.426.23-.813.539-1.122l4.389-4.41a.738.738 0 0 0 .192-.503c0-.155-.077-.348-.192-.503l-4.466-4.488c-.154-.116-.347-.193-.5-.193a.73.73 0 0 0-.501.193l-4.39 4.41c-.307.31-.692.465-1.116.542-.423.039-.847-.077-1.232-.31a22.926 22.926 0 0 0-4.504-2.398 26.144 26.144 0 0 0-4.851-1.509 1.766 1.766 0 0 1-1.078-.657 1.82 1.82 0 0 1-.423-1.2v-6.19a.737.737 0 0 0-.193-.502.832.832 0 0 0-.539-.194h-6.314c-.192 0-.346.078-.5.194a.737.737 0 0 0-.193.503v6.19c0 .464-.154.89-.423 1.199-.27.348-.655.58-1.078.657a25.27 25.27 0 0 0-4.851 1.51 22.93 22.93 0 0 0-4.505 2.398c-.385.232-.808.348-1.232.31-.423-.078-.808-.233-1.116-.542l-4.39-4.41a.73.73 0 0 0-.5-.194c-.192 0-.346.077-.5.193l-4.466 4.488a.696.696 0 0 0-.193.503c0 .193.039.387.193.503l4.35 4.41c.347.31.5.696.54 1.122.038.425-.04.85-.27 1.238a23.118 23.118 0 0 0-2.387 4.526 25.565 25.565 0 0 0-1.502 4.874c-.077.426-.346.813-.654 1.084a1.8 1.8 0 0 1-1.194.425h-6.16a.73.73 0 0 0-.5.194c-.116.154-.231.31-.231.502v6.384c0 .193.115.348.231.503a.73.73 0 0 0 .5.193h6.16a1.8 1.8 0 0 1 1.194.425c.308.271.577.658.654 1.084a25.565 25.565 0 0 0 1.502 4.874 23.119 23.119 0 0 0 2.387 4.526c.23.387.308.813.27 1.238-.04.426-.193.813-.54 1.122l-4.35 4.41c-.154.116-.193.31-.193.503 0 .155.039.348.193.503l4.466 4.488c.154.116.308.193.5.193a.73.73 0 0 0 .5-.193l4.39-4.41c.308-.31.693-.465 1.116-.503.424-.078.847.038 1.232.27a22.94 22.94 0 0 0 4.505 2.399 25.27 25.27 0 0 0 4.85 1.509c.424.077.81.31 1.079.657.27.31.423.735.423 1.2v6.19c0 .193.077.386.193.502.154.116.308.194.5.194h6.314a.832.832 0 0 0 .539-.194.737.737 0 0 0 .193-.503v-6.19c0-.464.154-.89.423-1.199.27-.348.654-.58 1.078-.657.654-.116 1.309-.31 1.963-.465.54-.193 1.117-.348 1.694-.58l-.038-.735c0-.735.077-1.47.154-2.166.115-.658.23-1.277.385-1.896a22.177 22.177 0 0 1-9.317 2.05c-12.397 0-22.445-10.097-22.445-22.515 0-12.456 10.048-22.553 22.445-22.553 12.358 0 22.407 10.097 22.407 22.553 0 3.327-.732 6.538-2.04 9.401.577-.193 1.231-.31 1.847-.387a13.951 13.951 0 0 1 2.195-.154h.616c.192-.542.346-1.084.5-1.625.193-.62.347-1.238.462-1.857.077-.426.308-.813.655-1.084a1.8 1.8 0 0 1 1.193-.425h6.16a.73.73 0 0 0 .5-.193c.116-.155.193-.31.193-.503v-.58c0-.388.193-.736.424-1.007.27-.27.616-.425 1.04-.425.384 0 .73.155 1 .425.27.271.424.62.424 1.006v.58c0 .968-.386 1.896-1.04 2.515-.654.658-1.54 1.083-2.54 1.083h-5.352l-.347 1.277c-.115.426-.23.813-.346 1.2a15.697 15.697 0 0 1 8.585 5.415A15.832 15.832 0 0 1 89 73.516c0 3.714-1.309 7.196-3.503 9.942a15.927 15.927 0 0 1-8.97 5.455c-.386.078-.77-.039-1.079-.232a1.348 1.348 0 0 1-.616-.928c-.077-.387 0-.774.193-1.084.23-.31.539-.541.924-.619 2.964-.58 5.505-2.205 7.315-4.448a12.714 12.714 0 0 0 2.887-8.086c0-3.52-1.463-6.731-3.734-9.052-2.31-2.283-5.506-3.753-9.01-3.753-1.077 0-2.117.155-3.08.387-1 .27-1.963.619-2.887 1.122-.192.116-.385.193-.577.31-1.27 1.663-2.734 3.172-4.39 4.41a4.235 4.235 0 0 0-.307.58 11.59 11.59 0 0 0-1.117 2.901zM61.241 64c.77-.85 1.54-1.624 2.348-2.282l.039-.039a19.43 19.43 0 0 0 4.697-12.689c0-10.754-8.663-19.458-19.327-19.458-10.703 0-19.365 8.704-19.365 19.458 0 10.716 8.662 19.42 19.365 19.42 4.658 0 8.932-1.663 12.243-4.41zm10.626 13.657c.154.116.308.232.5.309a1.589 1.589 0 0 0 1.194 0c.192-.077.346-.193.5-.31l5.852-5.725c.27-.27.424-.658.424-1.006 0-.387-.154-.774-.462-1.044a1.508 1.508 0 0 0-1.078-.426c-.385 0-.77.116-1.078.387l-4.736 4.642-2.964-2.94a1.466 1.466 0 0 0-1.117-.464c-.192-.039-.423 0-.616.077a1.464 1.464 0 0 0-.5.348c-.154.155-.27.31-.347.503a1.42 1.42 0 0 0-.115.58c0 .194.038.388.115.581.116.155.231.348.385.464l4.043 4.024z" fill="#616F8A"/></svg>
